X:416
T:Le Halle Place
C:Chris Leslie
S:https://lesters-tune-a-day.blogspot.com/2015/05
K:G
M:4/4
L:1/8
|:\
G3A B2G2 | E2F2 G4 | D2G2 G2AB | c2B2 B2A2 |
G3A B2G2 | E2F2 G4 | d3e  dcBA | G2B2 G4 :|
|:\
d3e dBGB | c2c2 c4 | B3c  d2B2 | AGFE D4 |
d3e dBGB | c2c2 c4 | cBAG FGAF | G2B2 G4 :|
